X: 15875
T: Graf Spee, The
R: reel
M: 4/4
K: Gmajor
|:EDcD E~G3|AGcG AGcG|EDcD E~G3|AGcG E~D3:|
|:~e3d ~c3A|G~E3 GAcd|1 ~e3d cBcA|GEcE E~D3:|2 ~a3g ~e3d|cAGE E~D3||
|:eggf ~g3d|eaag ~a3g|~e3d ~c3d|1 edge ed3:|2 eage ed3||
|:edcB cAGE|GAcd cAGE|GAcd eedc|AGcE ~ED3:|
edcd edcd|=fede =fed=f|edcd c3A|AAcd edcd|
eaag gedf|ecdB cAGE|GG (3Bcd eedB|cGcE E~D3||

